_assets/images/icon-facebook.svg

<svg fill="none" height="24" viewBox="0 0 25 24" width="25" xmlns="http://www.w3.org/2000/svg"><path clip-rule="evenodd" d="m24.1182 12.0814c0-6.66793-5.399-12.07334336-12.0591-12.07334336-6.66006 0-12.0591 5.40541336-12.0591 12.07334336 0 6.0261 4.40984 11.0209 10.1749 11.9267v-8.4368h-3.06191v-3.4899h3.06191v-2.65991c0-3.02588 1.8003-4.69729 4.5549-4.69729 1.3193 0 2.6994.23581 2.6994.23581v2.97117h-1.5206c-1.4981 0-1.9653.93066-1.9653 1.88545v2.26477h3.3446l-.5347 3.4899h-2.8099v8.4368c5.7651-.9058 10.1749-5.9006 10.1749-11.9267z" fill="#fff" fill-rule="evenodd"/></svg>

<svg width="25" height="24" viewBox="0 0 25 24" fill="none" xmlns="http://www.w3.org/2000/svg">
<path fill-rule="evenodd" clip-rule="evenodd" d="M24.1182 12.0814C24.1182 5.41347 18.7192 0.00805664 12.0591 0.00805664C5.39904 0.00805664 0 5.41347 0 12.0814C0 18.1075 4.40984 23.1023 10.1749 24.0081V15.5713H7.11299V12.0814H10.1749V9.42149C10.1749 6.39561 11.9752 4.7242 14.7298 4.7242C16.0491 4.7242 17.4292 4.96001 17.4292 4.96001V7.93118H15.9086C14.4105 7.93118 13.9433 8.86184 13.9433 9.81663V12.0814H17.2879L16.7532 15.5713H13.9433V24.0081C19.7084 23.1023 24.1182 18.1075 24.1182 12.0814Z" fill="white"/>
</svg>
